assets/icons/24px/message-bubble.svg

<svg width="24" height="24" viewBox="0 0 24 24" fill="none" xmlns="http://www.w3.org/2000/svg">
<path d="M5.29168 15.6474L4.63234 16.3993L4.63234 16.3993L5.29168 15.6474ZM9 17.6001L9.26732 16.6365L9.26732 16.6365L9 17.6001ZM4.125 19.878L3.65469 20.7605C3.70168 20.7855 3.7506 20.8067 3.80098 20.824L4.125 19.878ZM20 10.8048C20 12.7458 19.1501 14.3058 17.7473 15.4048C16.3256 16.5185 14.3046 17.1767 12 17.1767V19.1767C14.6659 19.1767 17.1449 18.4173 18.9807 16.9792C20.8351 15.5264 22 13.4004 22 10.8048H20ZM4 10.8048C4 9.22912 4.80666 7.80445 6.23352 6.74128C7.6676 5.67275 9.70091 5 12 5V3C9.32853 3 6.86184 3.77898 5.03855 5.13752C3.20805 6.50144 2 8.47919 2 10.8048H4ZM12 5C14.351 5 16.381 5.53895 17.7925 6.52184C19.1656 7.47797 20 8.8791 20 10.8048H22C22 8.19402 20.8197 6.19273 18.9354 4.88057C17.0895 3.59519 14.6196 3 12 3V5ZM5.95102 14.8956C4.72066 13.8166 4 12.2984 4 10.8048H2C2 12.9298 3.01246 14.9787 4.63234 16.3993L5.95102 14.8956ZM12 17.1767C11.1164 17.1767 10.2606 16.9121 9.26732 16.6365L8.73268 18.5637C9.61611 18.8088 10.7798 19.1767 12 19.1767V17.1767ZM9.26732 16.6365C8.79067 16.5043 8.38614 16.6901 8.19513 16.7944C7.97662 16.9138 7.77171 17.0768 7.60457 17.2188C7.43207 17.3654 7.24348 17.5391 7.06804 17.6985C6.88538 17.8645 6.70228 18.0286 6.51179 18.1856C5.68886 18.8637 5.04634 19.1365 4.44902 18.9319L3.80098 20.824C5.49534 21.4043 6.92478 20.4368 7.78366 19.7291C8.01362 19.5396 8.22659 19.3481 8.41296 19.1788C8.60653 19.0029 8.75992 18.8616 8.89968 18.7429C9.0448 18.6196 9.12244 18.5668 9.15411 18.5495C9.21328 18.5172 9.02656 18.6453 8.73268 18.5637L9.26732 16.6365ZM4.59531 18.9955C4.79869 19.1038 4.91757 19.2733 4.97359 19.4159C5.02183 19.5387 5.01991 19.6287 5.01966 19.6409C5.01929 19.6592 5.02079 19.6045 5.07245 19.4405C5.17084 19.128 5.35521 18.706 5.57669 18.2092C5.78325 17.7459 6.02449 17.2123 6.1766 16.7684C6.25125 16.5505 6.32684 16.2921 6.35235 16.0402C6.37006 15.8653 6.41073 15.2987 5.95102 14.8956L4.63234 16.3993C4.29536 16.1037 4.37253 15.7399 4.36252 15.8387C4.36033 15.8604 4.34401 15.9467 4.28457 16.1201C4.1685 16.4589 3.97285 16.895 3.75001 17.3948C3.54209 17.8612 3.30457 18.3958 3.16478 18.8398C3.09734 19.054 3.02567 19.3275 3.02009 19.5998C3.01537 19.8295 3.05852 20.4427 3.65469 20.7605L4.59531 18.9955Z" fill="white"/>
</svg>

<svg width="24" height="24" fill="none" xmlns="http://www.w3.org/2000/svg"><path d="M5.292 15.647l-.66.752.66-.752zM9 17.6l.267-.963L9 17.6zm-4.875 2.278l-.47.883c.047.024.096.046.146.063l.324-.946zM20 10.805c0 1.94-.85 3.5-2.253 4.6-1.421 1.114-3.442 1.772-5.747 1.772v2c2.666 0 5.145-.76 6.98-2.198C20.836 15.526 22 13.4 22 10.805h-2zm-16 0c0-1.576.807-3 2.234-4.064C7.668 5.673 9.7 5 12 5V3c-2.671 0-5.138.779-6.961 2.138C3.209 6.5 2 8.479 2 10.805h2zM12 5c2.351 0 4.381.539 5.793 1.522C19.166 7.478 20 8.879 20 10.805h2c0-2.611-1.18-4.612-3.065-5.924C17.09 3.595 14.62 3 12 3v2zm-6.049 9.896C4.721 13.816 4 12.298 4 10.805H2c0 2.125 1.012 4.174 2.632 5.594l1.319-1.503zM12 17.176c-.884 0-1.74-.264-2.733-.54l-.534 1.928c.883.245 2.047.613 3.267.613v-2zm-2.733-.54c-.476-.132-.88.054-1.072.158-.218.12-.423.283-.59.425-.173.146-.362.32-.537.48-.183.165-.366.33-.556.487-.823.678-1.466.95-2.063.746l-.648 1.892c1.694.58 3.124-.387 3.983-1.095.23-.19.443-.38.629-.55.194-.176.347-.317.487-.436.145-.123.222-.176.254-.194.06-.032-.127.096-.421.015l.534-1.927zm-4.672 2.36a.822.822 0 0 1 .379.42c.048.123.046.213.046.225 0 .018 0-.036.052-.2.099-.313.283-.735.505-1.232.206-.463.447-.997.6-1.44.074-.218.15-.477.175-.729.018-.175.059-.741-.401-1.144l-1.319 1.503c-.337-.295-.26-.66-.27-.56a1.607 1.607 0 0 1-.077.281c-.117.339-.312.775-.535 1.275-.208.466-.445 1-.585 1.445-.068.214-.14.488-.145.76-.005.23.039.843.635 1.16l.94-1.765z" fill="#fff"/></svg>
